public/cloud-icons/azure/management/system-integrity-monitoring.svg

<?xml version="1.0" encoding="UTF-8" standalone="no"?>
<!-- Generated by Microsoft Visio, SVG Export System Integrity Monitoring.svg Page-1 -->

<svg
   xmlns:dc="http://purl.org/dc/elements/1.1/"
   xmlns:cc="http://creativecommons.org/ns#"
   xmlns:rdf="http://www.w3.org/1999/02/22-rdf-syntax-ns#"
   xmlns:svg="http://www.w3.org/2000/svg"
   xmlns="http://www.w3.org/2000/svg"
   xmlns:sodipodi="http://sodipodi.sourceforge.net/DTD/sodipodi-0.dtd"
   xmlns:inkscape="http://www.inkscape.org/namespaces/inkscape"
   width="0.78743529in"
   height="0.70866382in"
   viewBox="0 0 56.695402 51.023698"
   xml:space="preserve"
   class="st7"
   version="1.1"
   id="svg50"
   sodipodi:docname="System Integrity Monitoring.svg"
   style="font-size:12px;overflow:visible;color-interpolation-filters:sRGB;fill:none;fill-rule:evenodd;stroke-linecap:square;stroke-miterlimit:3"
   inkscape:version="0.92.5 (2060ec1f9f, 2020-04-08)"><metadata
   id="metadata54"><rdf:RDF><cc:Work
       rdf:about=""><dc:format>image/svg+xml</dc:format><dc:type
         rdf:resource="http://purl.org/dc/dcmitype/StillImage" /></cc:Work></rdf:RDF></metadata><sodipodi:namedview
   pagecolor="#ffffff"
   bordercolor="#666666"
   borderopacity="1"
   objecttolerance="10"
   gridtolerance="10"
   guidetolerance="10"
   inkscape:pageopacity="0"
   inkscape:pageshadow="2"
   inkscape:window-width="640"
   inkscape:window-height="480"
   id="namedview52"
   showgrid="false"
   inkscape:zoom="1.6882998"
   inkscape:cx="37.795226"
   inkscape:cy="24.539707"
   inkscape:window-x="0"
   inkscape:window-y="0"
   inkscape:window-maximized="0"
   inkscape:current-layer="svg50" />
	<style
   type="text/css"
   id="style2">
	<![CDATA[
		.st1 {fill:url(#grad0-6);stroke:none;stroke-linecap:butt;stroke-width:19.8}
		.st2 {fill:#0078d4;stroke:none;stroke-linecap:butt;stroke-width:19.8}
		.st3 {fill:#9cebff;stroke:none;stroke-linecap:butt;stroke-width:19.8}
		.st4 {fill:#32bedd;stroke:none;stroke-linecap:butt;stroke-width:19.8}
		.st5 {fill:#50e6ff;stroke:none;stroke-linecap:butt;stroke-width:19.8}
		.st6 {fill:#ffffff;fill-opacity:0.5;stroke:none;stroke-linecap:butt;stroke-width:19.8}
		.st7 {fill:none;fill-rule:evenodd;font-size:12px;overflow:visible;stroke-linecap:square;stroke-miterlimit:3}
	]]>
	</style>

	<defs
   id="Patterns_And_Gradients">
		<linearGradient
   id="grad0-6"
   x1="0"
   y1="54.198148"
   x2="44.108666"
   y2="54.198148"
   gradientTransform="scale(0.93768422,1.0664571)"
   gradientUnits="userSpaceOnUse">
			<stop
   offset="0"
   stop-color="#0078d4"
   stop-opacity="1"
   id="stop4" />
			<stop
   offset="1"
   stop-color="#83b9f9"
   stop-opacity="1"
   id="stop6" />
		</linearGradient>
	</defs>
	<g
   id="g48"
   transform="translate(-19.8,-19.800606)">
		<title
   id="title10">Page-1</title>
		<g
   id="group12966-1"
   transform="translate(19.8,-34.0157)">
			<title
   id="title12">System Integrity Monitoring.12966</title>
			<g
   id="group12967-2">
				<title
   id="title14">Sheet.12967</title>
				<g
   id="shape12968-3"
   transform="translate(15.3354,-3.98385)">
					<title
   id="title16">Sheet.12968</title>
					<path
   d="M 0.03,69.56 20.69,57.8 41.36,69.56 V 93.08 L 20.69,104.84 0,93.08 V 69.64 Z"
   class="st1"
   id="path18"
   inkscape:connector-curvature="0"
   style="fill:url(#grad0-6);stroke:none;stroke-width:19.79999924;stroke-linecap:butt" />
				</g>
				<g
   id="shape12969-7"
   transform="translate(15.2484,-4.36906)">
					<title
   id="title21">Sheet.12969</title>
					<path
   d="m 0.12,69.93 20.52,11.39 v 23.52 L 0,93.11 0.09,70.01 Z"
   class="st2"
   id="path23"
   inkscape:connector-curvature="0"
   style="fill:#0078d4;stroke:none;stroke-width:19.79999924;stroke-linecap:butt" />
				</g>
				<g
   id="shape12970-9">
					<title
   id="title26">Sheet.12970</title>
					<path
   d="m 0.02,84.41 11.96,-6.8 11.96,6.8 V 98.03 L 11.98,104.84 0,98.03 V 84.46 Z"
   class="st3"
   id="path28"
   inkscape:connector-curvature="0"
   style="fill:#9cebff;stroke:none;stroke-width:19.79999924;stroke-linecap:butt" />
				</g>
				<g
   id="shape12971-11"
   transform="translate(0.016198,-0.0219551)">
					<title
   id="title31">Sheet.12971</title>
					<path
   d="m 0.02,84.46 11.93,6.77 v 13.61 L 0,98.05 V 84.5 Z"
   class="st4"
   id="path33"
   inkscape:connector-curvature="0"
   style="fill:#32bedd;stroke:none;stroke-width:19.79999924;stroke-linecap:butt" />
				</g>
				<g
   id="shape12972-13"
   transform="translate(11.9622,-0.0219551)">
					<title
   id="title36">Sheet.12972</title>
					<path
   d="M 11.98,84.44 0,91.23 v 13.61 l 11.98,-6.79 z"
   class="st5"
   id="path38"
   inkscape:connector-curvature="0"
   style="fill:#50e6ff;stroke:none;stroke-width:19.79999924;stroke-linecap:butt" />
				</g>
				<g
   id="shape12973-15"
   transform="translate(22.7339,-24.8671)">
					<title
   id="title41">Sheet.12973</title>
					<path
   d="M 0,94.43 19.95,82.48 26.21,86.04 6.24,97.99 v 6.58 a 0.285489,0.281424 0 0 1 -0.36243,0.27144 0.287514,0.28342 0 0 1 -0.143757,-0.0918 L 3.09,101.64 A 0.287514,0.28342 -180 0 0 2.810585,101.5482 L 0.35,102.08 A 0.287514,0.28342 0 0 1 0.003768,101.80456 L 0,94.44 Z"
   class="st6"
   id="path43"
   inkscape:connector-curvature="0"
   style="fill:#ffffff;fill-opacity:0.5;stroke:none;stroke-width:19.79999924;stroke-linecap:butt" />
				</g>
			</g>
		</g>
	</g>
</svg>

<svg xmlns="http://www.w3.org/2000/svg" xml:space="preserve" width="75.594" height="68.032" style="font-size:12px;overflow:visible;color-interpolation-filters:sRGB;fill-rule:evenodd;stroke-linecap:square;stroke-miterlimit:3" viewBox="0 0 56.695 51.024"><defs><linearGradient id="a" x1="0" x2="44.109" y1="54.198" y2="54.198" gradientTransform="scale(.93768 1.06646)" gradientUnits="userSpaceOnUse"><stop offset="0" stop-color="#0078d4"/><stop offset="1" stop-color="#83b9f9"/></linearGradient></defs><g transform="translate(-19.8 -19.8)"><title>Page-1</title><g transform="translate(19.8 -34.016)"><title>System Integrity Monitoring.12966</title><title>Sheet.12967</title><g transform="translate(15.335 -3.984)"><title>Sheet.12968</title><path d="M.03 69.56 20.69 57.8l20.67 11.76v23.52l-20.67 11.76L0 93.08V69.64Z" style="fill:url(#a);stroke:none;stroke-width:19.79999924;stroke-linecap:butt"/></g><g transform="translate(15.248 -4.37)"><title>Sheet.12969</title><path d="m.12 69.93 20.52 11.39v23.52L0 93.11l.09-23.1Z" style="fill:#0078d4;stroke:none;stroke-width:19.79999924;stroke-linecap:butt"/></g><title>Sheet.12970</title><path d="m.02 84.41 11.96-6.8 11.96 6.8v13.62l-11.96 6.81L0 98.03V84.46Z" style="fill:#9cebff;stroke:none;stroke-width:19.79999924;stroke-linecap:butt"/><g transform="translate(.016 -.022)"><title>Sheet.12971</title><path d="m.02 84.46 11.93 6.77v13.61L0 98.05V84.5Z" style="fill:#32bedd;stroke:none;stroke-width:19.79999924;stroke-linecap:butt"/></g><g transform="translate(11.962 -.022)"><title>Sheet.12972</title><path d="M11.98 84.44 0 91.23v13.61l11.98-6.79z" style="fill:#50e6ff;stroke:none;stroke-width:19.79999924;stroke-linecap:butt"/></g><g transform="translate(22.734 -24.867)"><title>Sheet.12973</title><path d="m0 94.43 19.95-11.95 6.26 3.56L6.24 97.99v6.58a.285.281 0 0 1-.362.271.288.283 0 0 1-.144-.091l-2.644-3.11a.288.283-180 0 0-.28-.092l-2.46.532a.288.283 0 0 1-.346-.275L0 94.44Z" style="fill:#fff;fill-opacity:.5;stroke:none;stroke-width:19.79999924;stroke-linecap:butt"/></g></g></g></svg>
